X:28
M:C
L:1/8
K:D
g|fdfa bggb|affa geeg|fdfa bggb|afdf e2 dg|fdfa bggb|afdf bgeg|
fgaf gabg|afdf e2 d||

